archdroid-icon-theme/Archdroid-Grey/actions/scalable/edit-paste-text.svg

<svg fill="#9E9E9E" viewBox="0 0 48 48" xmlns="http://www.w3.org/2000/svg"><path d="m24 0c-2.61 0-4.810859 1.68-5.630859 4h-8.369141c-2.21 0-4 1.79-4 4v32c0 2.21 1.79 4 4 4h28c2.21 0 4-1.79 4-4v-32c0-2.21-1.79-4-4-4h-8.369141c-.82-2.32-3.020859-4-5.630859-4zm0 4c1.1 0 2 .89 2 2s-.9 2-2 2-2-.89-2-2 .9-2 2-2zm-14 4h4v6h20v-6h4v32h-28zm11.945313 8.671875-7.941407 21.328125h4.673828l1.464844-4.394531h7.705078l1.480469 4.394531h4.671875l-7.984375-21.328125zm2.035156 5.390625 2.679687 7.984375h-5.332031z" fill="#9E9E9E"/></svg>

<svg fill="#9E9E9E" version="1.1" viewBox="0 0 48 48" xmlns="http://www.w3.org/2000/svg"><path d="M24 0C21.39 0 19.189141 1.68 18.369141 4L10 4C7.79 4 6 5.79 6 8L6 40C6 42.21 7.79 44 10 44L38 44C40.21 44 42 42.21 42 40L42 8C42 5.79 40.21 4 38 4L29.630859 4C28.810859 1.68 26.61 0 24 0zM24 4C25.1 4 26 4.89 26 6 26 7.11 25.1 8 24 8 22.9 8 22 7.11 22 6 22 4.89 22.9 4 24 4zM10 8L14 8 14 14 34 14 34 8 38 8 38 40 10 40 10 8zM21.945313 16.671875L14.003906 38 18.677734 38 20.142578 33.605469 27.847656 33.605469 29.328125 38 34 38 26.015625 16.671875 21.945313 16.671875zM23.980469 22.0625L26.660156 30.046875 21.328125 30.046875 23.980469 22.0625z" fill="#9E9E9E"/></svg>
